X: 3
T: You Married My Daughter But Yet You Didn't
I: RJ R-30 G reel
M: C|
R: reel
K: G
|:\
"G"B2d2 g2g2 | "D"fgaf "G"g2g2 | B2d2 \
[1,3 "D"f2f2 | "A7"efge "D"f2f2 :|[2,4 "D"fgfe | dBA2 "G"G4 :|
|:\
"G"BcdB G2BB | G2BB d2c2 | "D"ABcA \
[1,3 F2AA | F2AA "G"e2d2 :|[2,4 F2fe | dBA2 "G"G4 :|
% text 08/25/99

